src/assets/duotone/Strongbox.svg

<svg width="24" height="24" viewBox="0 0 24 24"  xmlns="http://www.w3.org/2000/svg">
<path opacity="0.4" d="M16.1898 2H7.81976C4.17976 2 2.00977 4.17 2.00977 7.81V16.18C2.00977 19.82 4.17976 21.99 7.81976 21.99H16.1898C19.8298 21.99 21.9998 19.82 21.9998 16.18V7.81C21.9998 4.17 19.8298 2 16.1898 2Z" />
<path d="M22 10.16H14.33C14.32 10.09 14.32 10.01 14.3 9.93997C14.09 9.13997 13.44 8.48997 12.64 8.27997C11.2 7.89997 9.89001 8.83998 9.67001 10.16H2V11.66H9.91C10.11 12.04 10.39 12.36 10.75 12.58V14.56C10.75 15.25 11.31 15.81 12 15.81C12.69 15.81 13.25 15.25 13.25 14.56V12.58C13.61 12.36 13.89 12.04 14.09 11.66H22V10.16Z" />
</svg>

<?xml version="1.0" encoding="UTF-8"?>
<svg width="24" height="24" viewBox="0 0 24 24" xmlns="http://www.w3.org/2000/svg">
 <path d="m16.19 2h-8.37c-3.64 0-5.81 2.17-5.81 5.81v8.37c0 3.64 2.17 5.81 5.81 5.81h8.37c3.64 0 5.81-2.17 5.81-5.81v-8.37c0-3.64-2.17-5.81-5.81-5.81z" opacity=".4"/>
 <path d="m22 10.16h-7.67c-0.01-0.07-0.01-0.15-0.03-0.22003-0.21-0.8-0.86-1.45-1.66-1.66-1.44-0.38-2.75 0.56001-2.97 1.88h-7.67v1.5h7.91c0.2 0.38 0.48 0.7 0.84 0.92v1.98c0 0.69 0.56 1.25 1.25 1.25s1.25-0.56 1.25-1.25v-1.98c0.36-0.22 0.64-0.54 0.84-0.92h7.91v-1.5z"/>
</svg>
